client/public/assets/icons/utility/record_update.svg

<?xml version="1.0"?><svg xmlns="http://www.w3.org/2000/svg" width="52" height="52" viewBox="0 0 52 52"><path fill="#fff" d="m40.8 7.7"></path><g fill="#fff"><path d="m17.2 11.6h17.6c0.9 0 1.6-0.7 1.6-1.6v-3.2c0-2.6-2.2-4.8-4.8-4.8h-11.2c-2.6 0-4.8 2.2-4.8 4.8v3.2c0 0.9 0.7 1.6 1.6 1.6z m26.4-5.6h-1.6c-0.5 0-0.8 0.3-0.8 0.8v3.2c0 3.5-2.9 6.4-6.4 6.4h-17.6c-3.5 0-6.4-2.9-6.4-6.4v-3.2c0-0.5-0.3-0.8-0.8-0.8h-1.6c-2.6 0-4.8 2.2-4.8 4.8v34.4c0 2.6 2.2 4.8 4.8 4.8h35.2c2.6 0 4.8-2.2 4.8-4.8v-34.4c0-2.6-2.2-4.8-4.8-4.8z m-9.6 24.4l-12.8 12.8-5.6 1.6c-0.5 0.1-1-0.4-0.9-0.9l1.6-5.5 12.8-12.8c0.2-0.2 0.5-0.2 0.7 0l4.1 4.2c0.3 0.1 0.3 0.4 0.1 0.6z m3.7-3.7l-1.6 1.6c-0.2 0.2-0.5 0.2-0.7 0l-4.2-4.2c-0.2-0.2-0.2-0.5 0-0.7l1.6-1.6c0.7-0.8 2-0.8 2.7 0l2.1 2.1c0.9 0.8 0.9 2 0.1 2.8z"></path></g></svg>

<?xml version="1.0" encoding="utf-8"?>
<!-- Generator: Adobe Illustrator 21.1.0, SVG Export Plug-In . SVG Version: 6.00 Build 0)  -->
<svg version="1.1" id="Layer_1" xmlns="http://www.w3.org/2000/svg" xmlns:xlink="http://www.w3.org/1999/xlink" x="0px" y="0px"
	 width="52px" height="52px" viewBox="0 0 52 52" enable-background="new 0 0 52 52" xml:space="preserve">
<path fill="#FFFFFF" d="M40.8,7.7C40.8,7.7,40.8,7.7,40.8,7.7"/>
<g>
	<path fill="#FFFFFF" d="M17.2,11.6h17.6c0.9,0,1.6-0.7,1.6-1.6V6.8c0-2.6-2.2-4.8-4.8-4.8H20.4c-2.6,0-4.8,2.2-4.8,4.8V10
		C15.6,10.9,16.3,11.6,17.2,11.6z"/>
	<path fill="#FFFFFF" d="M43.6,6H42c-0.5,0-0.8,0.3-0.8,0.8V10c0,3.5-2.9,6.4-6.4,6.4H17.2c-3.5,0-6.4-2.9-6.4-6.4V6.8
		C10.8,6.3,10.5,6,10,6H8.4c-2.6,0-4.8,2.2-4.8,4.8v34.4c0,2.6,2.2,4.8,4.8,4.8h35.2c2.6,0,4.8-2.2,4.8-4.8V10.8
		C48.4,8.2,46.2,6,43.6,6z M34,30.4L21.2,43.2h0l-5.6,1.6c-0.5,0.1-1-0.4-0.9-0.9l1.6-5.5l12.8-12.8c0.2-0.2,0.5-0.2,0.7,0l4.1,4.2
		C34.2,29.9,34.2,30.2,34,30.4z M37.7,26.7l-1.6,1.6c-0.2,0.2-0.5,0.2-0.7,0l-4.2-4.2c-0.2-0.2-0.2-0.5,0-0.7l1.6-1.6
		c0.7-0.8,2-0.8,2.7,0l2.1,2.1C38.5,24.7,38.5,25.9,37.7,26.7z"/>
</g>
</svg>
